src/assets/images/logo-iRemont.svg

<svg width="122" height="28" viewBox="0 0 122 28" fill="none" xmlns="http://www.w3.org/2000/svg">
<path d="M33.7227 9.51172C33.7227 8.34766 34.3711 7.76563 35.668 7.76563C36.9648 7.76563 37.6133 8.34766 37.6133 9.51172C37.6133 10.0664 37.4492 10.5 37.1211 10.8125C36.8008 11.1172 36.3164 11.2695 35.668 11.2695C34.3711 11.2695 33.7227 10.6836 33.7227 9.51172ZM37.4492 26H33.875V12.8984H37.4492V26Z" fill="#BDBDBD"/>
<path d="M42.965 16.9297H44.1603C45.2775 16.9297 46.1134 16.7109 46.6681 16.2734C47.2228 15.8281 47.5002 15.1836 47.5002 14.3398C47.5002 13.4883 47.2658 12.8594 46.797 12.4531C46.3361 12.0469 45.6095 11.8438 44.6173 11.8438H42.965V16.9297ZM51.1681 14.2109C51.1681 16.0547 50.59 17.4648 49.4337 18.4414C48.2853 19.418 46.6486 19.9063 44.5236 19.9063H42.965V26H39.3322V8.86719H44.8048C46.883 8.86719 48.4611 9.31641 49.5392 10.2148C50.6252 11.1055 51.1681 12.4375 51.1681 14.2109Z" fill="#BDBDBD"/>
<path d="M57.867 15.1953C57.1092 15.1953 56.5155 15.4375 56.0858 15.9219C55.6561 16.3984 55.41 17.0781 55.3475 17.9609H60.3631C60.3475 17.0781 60.117 16.3984 59.6717 15.9219C59.2264 15.4375 58.6248 15.1953 57.867 15.1953ZM58.3709 26.2344C56.2616 26.2344 54.6131 25.6523 53.4256 24.4883C52.2381 23.3242 51.6444 21.6758 51.6444 19.543C51.6444 17.3477 52.1912 15.6523 53.285 14.457C54.3866 13.2539 55.9061 12.6523 57.8436 12.6523C59.6952 12.6523 61.1366 13.1797 62.1678 14.2344C63.1991 15.2891 63.7147 16.7461 63.7147 18.6055V20.3398H55.2655C55.3045 21.3555 55.6053 22.1484 56.1678 22.7188C56.7303 23.2891 57.5194 23.5742 58.535 23.5742C59.3241 23.5742 60.0702 23.4922 60.7733 23.3281C61.4764 23.1641 62.2108 22.9023 62.9764 22.543V25.3086C62.3514 25.6211 61.6834 25.8516 60.9725 26C60.2616 26.1563 59.3944 26.2344 58.3709 26.2344Z" fill="#BDBDBD"/>
<path d="M81.4527 26H78.1128V15.6758L77.9253 16.4023C77.5034 18.0508 77.1245 19.2969 76.7886 20.1406L74.4683 26H71.9253L69.5698 20.0938C69.2339 19.2344 68.8745 18.0273 68.4917 16.4727L68.2691 15.6758V26H64.9409V12.8984H69.8628L72.1128 18.4883C72.3472 19.0898 72.562 19.7813 72.7573 20.5625C72.9605 21.3438 73.0972 22.0117 73.1675 22.5664C73.4253 21.3945 73.6245 20.5547 73.7652 20.0469C73.9136 19.5313 74.0737 19.0586 74.2456 18.6289C74.4175 18.1992 75.1948 16.2891 76.5777 12.8984H81.4527V26Z" fill="#BDBDBD"/>
<path d="M86.382 19.4258C86.382 20.7227 86.593 21.7031 87.0148 22.3672C87.4445 23.0313 88.1398 23.3633 89.1008 23.3633C90.0539 23.3633 90.7375 23.0352 91.1516 22.3789C91.5734 21.7148 91.7844 20.7305 91.7844 19.4258C91.7844 18.1289 91.5734 17.1563 91.1516 16.5078C90.7297 15.8594 90.0383 15.5352 89.0773 15.5352C88.1242 15.5352 87.4367 15.8594 87.0148 16.5078C86.593 17.1484 86.382 18.1211 86.382 19.4258ZM95.4406 19.4258C95.4406 21.5586 94.8781 23.2266 93.7531 24.4297C92.6281 25.6328 91.0617 26.2344 89.0539 26.2344C87.7961 26.2344 86.6867 25.9609 85.7258 25.4141C84.7648 24.8594 84.0266 24.0664 83.5109 23.0352C82.9953 22.0039 82.7375 20.8008 82.7375 19.4258C82.7375 17.2852 83.2961 15.6211 84.4133 14.4336C85.5305 13.2461 87.1008 12.6523 89.1242 12.6523C90.382 12.6523 91.4914 12.9258 92.4523 13.4727C93.4133 14.0195 94.1516 14.8047 94.6672 15.8281C95.1828 16.8516 95.4406 18.0508 95.4406 19.4258Z" fill="#BDBDBD"/>
<path d="M100.288 12.8984V17.9375H105.28V12.8984H108.854V26H105.28V20.5977H100.288V26H96.7137V12.8984H100.288Z" fill="#BDBDBD"/>
<path d="M121.764 12.8984V15.582H117.475V26H113.901V15.582H109.6V12.8984H121.764Z" fill="#BDBDBD"/>
<path d="M17.798 6.20981C15.624 5.81996 14.1458 7.33104 12.2327 7.33103L11.6241 7.33103C9.79796 7.33103 8.23274 5.81996 6.05883 6.20981C1.87839 6.9595 0.601846 9.36184 0.0588295 13.5409C-0.434274 17.3358 2.23274 24.1493 5.79796 26.7367C7.69941 28.1167 9.36318 26.133 11.6241 26.133H12.2327C14.4936 26.133 16.1574 28.1167 18.0588 26.7367C21.624 24.1493 24.2911 17.3358 23.798 13.5409C23.2549 9.36184 21.9784 6.9595 17.798 6.20981Z" fill="#BDBDBD"/>
<path d="M11.4008 6.54203C14.3488 6.40216 16.6957 3.9872 16.6957 1.02858C16.6957 0.677078 16.6625 0.33325 16.5992 0C13.6512 0.139863 11.3043 2.55482 11.3043 5.51345C11.3043 5.86495 11.3375 6.20878 11.4008 6.54203Z" fill="#BDBDBD"/>
</svg>

<svg width="122" height="28" 
    xmlns="http://www.w3.org/2000/svg" fill="none">
    <path d="M33.723 9.512c0-1.164.648-1.746 1.945-1.746 1.297 0 1.945.582 1.945 1.746 0 .555-.164.988-.492 1.301-.32.305-.805.457-1.453.457-1.297 0-1.945-.586-1.945-1.758zm3.726 16.488h-3.574v-13.102h3.574v13.102zm5.516-9.07h1.195c1.117 0 1.953-.219 2.508-.656.555-.445.832-1.09.832-1.934 0-.852-.234-1.48-.703-1.887-.461-.406-1.188-.609-2.18-.609h-1.652v5.086zm8.203-2.719c0 1.844-.578 3.254-1.734 4.231-1.148.977-2.785 1.465-4.91 1.465h-1.559v6.094h-3.633v-17.133h5.473c2.078 0 3.656.449 4.734 1.348 1.086.891 1.629 2.223 1.629 3.996zm6.699.984c-.758 0-1.351.242-1.781.727-.43.476-.676 1.156-.738 2.039h5.016c-.016-.883-.246-1.563-.691-2.039-.445-.484-1.047-.727-1.805-.727zm.504 11.039c-2.109 0-3.758-.582-4.945-1.746-1.188-1.164-1.781-2.813-1.781-4.945 0-2.195.547-3.891 1.641-5.086 1.102-1.203 2.621-1.805 4.559-1.805 1.852 0 3.293.527 4.324 1.582 1.031 1.055 1.547 2.512 1.547 4.371v1.734h-8.449c.039 1.016.34 1.809.902 2.379.563.57 1.352.855 2.367.855.789 0 1.535-.082 2.238-.246.703-.164 1.438-.426 2.203-.785v2.766c-.625.313-1.293.543-2.004.691-.711.156-1.578.234-2.602.234zm23.082-.234h-3.34v-10.324l-.188.727c-.422 1.649-.801 2.895-1.137 3.738l-2.32 5.859h-2.543l-2.356-5.906c-.336-.859-.695-2.067-1.078-3.621l-.223-.797v10.324h-3.328v-13.102h4.922l2.25 5.59c.234.602.449 1.293.644 2.074.203.781.34 1.449.41 2.004.258-1.172.457-2.012.598-2.519.148-.516.308-.988.48-1.418.172-.43.949-2.34 2.332-5.731h4.875v13.102zm4.929-6.574c0 1.297.211 2.277.633 2.941.43.664 1.125.996 2.086.996.953 0 1.637-.328 2.051-.984.422-.664.633-1.648.633-2.953 0-1.297-.211-2.269-.633-2.918-.422-.648-1.113-.973-2.074-.973-.953 0-1.641.324-2.063.973-.422.641-.633 1.613-.633 2.918zm9.059 0c0 2.133-.563 3.801-1.688 5.004-1.125 1.203-2.691 1.805-4.699 1.805-1.258 0-2.367-.274-3.328-.82-.961-.555-1.699-1.348-2.215-2.379-.516-1.031-.773-2.234-.773-3.609 0-2.141.559-3.805 1.676-4.992 1.117-1.188 2.688-1.781 4.711-1.781 1.258 0 2.367.274 3.328.82.961.547 1.699 1.332 2.215 2.355.516 1.024.773 2.223.773 3.598zm4.847-6.527v5.039h4.992v-5.039h3.574v13.102h-3.574v-5.402h-4.992v5.402h-3.574v-13.102h3.574zm21.476 0v2.684h-4.289v10.418h-3.574v-10.418h-4.301v-2.684h12.164zm-103.966-6.689c-2.174-.39-3.652 1.121-5.565 1.121h-.609c-1.826 0-3.391-1.511-5.565-1.121-4.18.75-5.457 3.152-6 7.331-.493 3.795 2.174 10.608 5.739 13.196 1.901 1.38 3.565-.604 5.826-.604h.609c2.261 0 3.925 1.984 5.826.604 3.565-2.587 6.232-9.401 5.739-13.196-.543-4.179-1.82-6.581-6-7.331zM11.401 6.542c2.948-.14 5.295-2.555 5.295-5.513 0-.352-.033-.695-.097-1.029-2.948.14-5.295 2.555-5.295 5.513 0 .351.033.695.097 1.029z" fill="#BDBDBD"/>
</svg>
